icons/svg/tourist/maze.svg

<?xml version="1.0" encoding="UTF-8" standalone="no"?>
<!-- Created with Inkscape (http://www.inkscape.org/) -->

<svg
   xmlns:dc="http://purl.org/dc/elements/1.1/"
   xmlns:cc="http://creativecommons.org/ns#"
   xmlns:rdf="http://www.w3.org/1999/02/22-rdf-syntax-ns#"
   xmlns:svg="http://www.w3.org/2000/svg"
   xmlns="http://www.w3.org/2000/svg"
   xmlns:sodipodi="http://sodipodi.sourceforge.net/DTD/sodipodi-0.dtd"
   xmlns:inkscape="http://www.inkscape.org/namespaces/inkscape"
   version="1.0"
   width="580"
   height="580"
   id="svg2"
   sodipodi:version="0.32"
   inkscape:version="0.48.4 r9939"
   sodipodi:docname="attraction_water_slide.svg"
   inkscape:output_extension="org.inkscape.output.svg.inkscape">
  <metadata
     id="metadata2975">
    <rdf:RDF>
      <cc:Work
         rdf:about="">
        <dc:format>image/svg+xml</dc:format>
        <dc:type
           rdf:resource="http://purl.org/dc/dcmitype/StillImage" />
        <cc:license
           rdf:resource="http://web.resource.org/cc/PublicDomain" />
        <dc:language>en</dc:language>
        <dc:title></dc:title>
      </cc:Work>
    </rdf:RDF>
  </metadata>
  <sodipodi:namedview
     inkscape:window-height="1004"
     inkscape:window-width="1920"
     inkscape:pageshadow="2"
     inkscape:pageopacity="0.0"
     guidetolerance="10.0"
     gridtolerance="10.0"
     objecttolerance="10.0"
     borderopacity="1.0"
     bordercolor="#666666"
     pagecolor="#ffffff"
     id="base"
     inkscape:zoom="1.3034483"
     inkscape:cx="262.81717"
     inkscape:cy="296.85482"
     inkscape:window-x="1680"
     inkscape:window-y="0"
     inkscape:current-layer="svg2"
     showgrid="false"
     inkscape:window-maximized="1" />
  <defs
     id="defs4">
    <inkscape:perspective
       sodipodi:type="inkscape:persp3d"
       inkscape:vp_x="0 : 290 : 1"
       inkscape:vp_y="0 : 1000 : 0"
       inkscape:vp_z="580 : 290 : 1"
       inkscape:persp3d-origin="290 : 193.33333 : 1"
       id="perspective2441" />
    <inkscape:perspective
       id="perspective3452"
       inkscape:persp3d-origin="30 : 20 : 1"
       inkscape:vp_z="60 : 30 : 1"
       inkscape:vp_y="0 : 1000 : 0"
       inkscape:vp_x="0 : 30 : 1"
       sodipodi:type="inkscape:persp3d" />
    <symbol
       viewBox="244.5 110 489 219.9"
       id="symbol-university">
      <path
         id="path4460"
         d="M79,43l57,119c0,0,21-96,104-96s124,106,124,106l43-133l82-17L0,17L79,43z" />
      <path
         id="path4462"
         d="M94,176l-21,39"
         stroke-width="20"
         stroke="#000000"
         fill="none" />
      <path
         id="path4464"
         d="M300,19c0,10.5-22.6,19-50.5,19S199,29.5,199,19s22.6-19,50.5-19S300,8.5,300,19z" />
      <path
         id="path4466"
         d="M112,216l-16-38L64,88c0,0-9-8-4-35s16-24,16-24"
         stroke-width="20"
         stroke="#000000"
         ill="none" />
    </symbol>
    <inkscape:perspective
       id="perspective4471"
       inkscape:persp3d-origin="372.04724 : 350.78739 : 1"
       inkscape:vp_z="744.09448 : 526.18109 : 1"
       inkscape:vp_y="0 : 1000 : 0"
       inkscape:vp_x="0 : 526.18109 : 1"
       sodipodi:type="inkscape:persp3d" />
    <inkscape:perspective
       id="perspective4668"
       inkscape:persp3d-origin="6 : 4 : 1"
       inkscape:vp_z="12 : 6 : 1"
       inkscape:vp_y="0 : 1000 : 0"
       inkscape:vp_x="0 : 6 : 1"
       sodipodi:type="inkscape:persp3d" />
    <inkscape:perspective
       id="perspective4904"
       inkscape:persp3d-origin="16 : 10.666667 : 1"
       inkscape:vp_z="32 : 16 : 1"
       inkscape:vp_y="0 : 1000 : 0"
       inkscape:vp_x="0 : 16 : 1"
       sodipodi:type="inkscape:persp3d" />
  </defs>
  <g
     id="g1327">
    <path
       d="M 66.275,1.768 C 24.94,1.768 1.704,23.139 1.704,66.804 L 1.704,516.927 C 1.704,557.771 22.599,579.156 63.896,579.156 L 515.92,579.156 C 557.227,579.156 578.149,558.841 578.149,516.927 L 578.149,66.804 C 578.149,24.203 557.227,1.768 514.628,1.768 C 514.624,1.768 66.133,1.625 66.275,1.768 z "
       style="fill:#111;stroke:#eee;stroke-width:3.40799999"
       id="path1329" />
  </g>
  <rect
     y="-69.882286"
     x="207.25069"
     style="fill:none"
     width="376.44794"
     height="376.44794"
     id="rect3" />
  <path
     style="font-size:medium;font-style:normal;font-variant:normal;font-weight:normal;font-stretch:normal;text-indent:0;text-align:start;text-decoration:none;line-height:normal;letter-spacing:normal;word-spacing:normal;text-transform:none;direction:ltr;block-progression:tb;writing-mode:lr-tb;text-anchor:start;baseline-shift:baseline;color:#000000;fill:#ffffff;fill-opacity:1;stroke:none;stroke-width:26.32856178;marker:none;visibility:visible;display:inline;overflow:visible;enable-background:accumulate;font-family:Sans;-inkscape-font-specification:Sans"
     d="M 290,31.8125 C 147.54274,31.8125 31.8125,147.54274 31.8125,290 c 0,48.24616 13.280022,93.43628 36.375,132.09375 L 87.75,406.3125 C 68.050924,372.09393 56.78125,332.37567 56.78125,290 56.78125,161.05374 161.05374,56.78125 290,56.78125 c 42.89305,0 91.46822,16.966447 125.97108,37.112393 L 432.90365,75.213681 C 393.02158,49.97372 340.62905,31.8125 290,31.8125 z m 211.9838,107.74554 -18.32656,14.7242 c 32.56006,44.66974 39.56151,76.03885 39.56151,135.71776 0,128.94625 -104.27249,233.21875 -233.21875,233.21875 -62.30694,0 -118.84854,-24.35536 -160.65625,-64.0625 l -17.90311,16.10235 c 46.54364,45.34429 108.54344,72.9289 178.55936,72.9289 142.45726,0 258.1875,-115.73025 258.1875,-258.1875 0,-65.6322 -8.84674,-101.02352 -46.2037,-150.44196 z"
     id="path3842"
     inkscape:connector-curvature="0"
     sodipodi:nodetypes="ssccssccsccssccssc" />
  <path
     style="font-size:medium;font-style:normal;font-variant:normal;font-weight:normal;font-stretch:normal;text-indent:0;text-align:start;text-decoration:none;line-height:normal;letter-spacing:normal;word-spacing:normal;text-transform:none;direction:ltr;block-progression:tb;writing-mode:lr-tb;text-anchor:start;baseline-shift:baseline;color:#000000;fill:#ffffff;fill-opacity:1;stroke:none;stroke-width:37.62658691;marker:none;visibility:visible;display:inline;overflow:visible;enable-background:accumulate;font-family:Sans;-inkscape-font-specification:Sans"
     d="m 290,105.5625 c -101.71049,0 -184.4375,82.72701 -184.4375,184.4375 0,52.51582 22.07098,99.94738 57.40625,133.5625 l 27.19971,-7.86279 C 153.27008,381.3441 130.5625,333.08805 130.5625,290 c 0,-88.19949 71.23801,-159.4375 159.4375,-159.4375 8.09464,0 16.04415,0.62358 23.8125,1.78125 l 5.9375,-24.375 C 310.06454,106.39004 300.12576,105.5625 290,105.5625 z m 178.25942,131.1665 -22.5625,11 c 3.49016,17.56815 3.74058,24.39031 3.74058,42.271 0,88.19949 -71.23801,159.4375 -159.4375,159.4375 -20.70651,0 -54.25688,-7.83956 -72.39164,-14.98856 l -9.6163,21.16234 c 21.73322,9.02178 57.04579,18.82622 82.00794,18.82622 101.71049,0 184.4375,-82.72701 184.4375,-184.4375 0,-21.77746 -0.36625,-31.94717 -6.17808,-53.271 z"
     id="path3842-9"
     inkscape:connector-curvature="0"
     sodipodi:nodetypes="ssccssccsccssccssc" />
  <path
     style="font-size:medium;font-style:normal;font-variant:normal;font-weight:normal;font-stretch:normal;text-indent:0;text-align:start;text-decoration:none;line-height:normal;letter-spacing:normal;word-spacing:normal;text-transform:none;direction:ltr;block-progression:tb;writing-mode:lr-tb;text-anchor:start;baseline-shift:baseline;color:#000000;fill:#ffffff;fill-opacity:1;stroke:none;stroke-width:64.4838028;marker:none;visibility:visible;display:inline;overflow:visible;enable-background:accumulate;font-family:Sans;-inkscape-font-specification:Sans"
     d="M 290 177.1875 C 227.83784 177.1875 177.1875 227.83784 177.1875 290 C 177.1875 341.64742 212.1437 385.35002 259.625 398.65625 L 260.5625 372.78125 C 226.482 360.72902 202.1875 328.31205 202.1875 290 C 202.1875 241.34884 241.34884 202.1875 290 202.1875 C 300.88897 202.1875 311.3007 204.1582 320.90625 207.75 L 337.5 187.6875 C 323.05126 180.94334 306.95509 177.1875 290 177.1875 z M 383.96875 225.21875 L 362.75 240.65625 C 372.27589 254.70491 377.8125 271.6755 377.8125 290 C 377.8125 332.81184 347.49361 368.26008 307.0625 376.15625 L 306.125 401.65625 C 360.69137 393.80151 402.8125 346.69095 402.8125 290 C 402.8125 263.98974 398.83862 244.33461 383.96875 225.21875 z "
     id="path3842-9-2" />
  <path
     style="font-size:medium;font-style:normal;font-variant:normal;font-weight:normal;font-stretch:normal;text-indent:0;text-align:start;text-decoration:none;line-height:normal;letter-spacing:normal;word-spacing:normal;text-transform:none;direction:ltr;block-progression:tb;writing-mode:lr-tb;text-anchor:start;baseline-shift:baseline;color:#000000;fill:#ffffff;fill-opacity:1;stroke:none;stroke-width:209.46722412;marker:none;visibility:visible;display:inline;overflow:visible;enable-background:accumulate;font-family:Sans;-inkscape-font-specification:Sans"
     d="m 290,246.625 c -23.81227,0 -43.375,19.56274 -43.375,43.375 0,6.58947 1.51588,12.85461 4.1875,18.46875 L 271.65625,290.625 c -0.007,-0.20918 -0.0312,-0.4139 -0.0312,-0.625 0,-10.30126 8.07374,-18.375 18.375,-18.375 6.64581,0 12.33818,3.37661 15.5625,8.53125 l 27.40625,4.0625 C 330.10334,263.10682 311.84911,246.625 290,246.625 z m 11.80605,57.2166 c -2.57618,1.99161 -3.87009,2.86226 -7.60434,3.82097 -5.07097,1.30189 -9.42293,-0.39087 -10.30045,-0.51469 l -16.70897,16.57748 c 6.83506,4.50816 14.07354,9.64964 22.80771,9.64964 17.40384,0 32.54975,-10.45094 39.4375,-25.375 z"
     id="path3842-9-2-1"
     inkscape:connector-curvature="0"
     sodipodi:nodetypes="ssccssccscsccscc" />
  <path
     style="fill:none;stroke:#ffffff;stroke-width:25;stroke-linecap:butt;stroke-linejoin:miter;stroke-miterlimit:4;stroke-opacity:1;stroke-dasharray:none"
     d="M 326.02529,274.00358 502.86295,155.09857"
     id="path3975"
     inkscape:connector-curvature="0"
     sodipodi:nodetypes="cc" />
  <path
     style="fill:none;stroke:#ffffff;stroke-width:25;stroke-linecap:butt;stroke-linejoin:miter;stroke-miterlimit:4;stroke-opacity:1;stroke-dasharray:none"
     d="m 326.36194,211.501 94.451,-141.704419"
     id="path3975-2"
     inkscape:connector-curvature="0"
     sodipodi:nodetypes="cc" />
  <path
     style="fill:none;stroke:#ffffff;stroke-width:25;stroke-linecap:butt;stroke-linejoin:miter;stroke-miterlimit:4;stroke-opacity:1;stroke-dasharray:none"
     d="m 122.95094,481.22546 60.85279,-71.57443"
     id="path3975-2-6"
     inkscape:connector-curvature="0"
     sodipodi:nodetypes="cc" />
  <path
     style="fill:none;stroke:#ffffff;stroke-width:25;stroke-linecap:butt;stroke-linejoin:miter;stroke-miterlimit:4;stroke-opacity:1;stroke-dasharray:none"
     d="m 220.07566,459.21426 58.59737,-130.6285"
     id="path3975-2-63"
     inkscape:connector-curvature="0"
     sodipodi:nodetypes="cc" />
</svg>

<svg width="580" height="580" viewBox="0 0 580 580" fill="none" xmlns="http://www.w3.org/2000/svg">
<g clip-path="url(#clip0)">
<path d="M66.2751 1.76815C24.9401 1.76815 1.7041 23.1391 1.7041 66.8041V516.927C1.7041 557.771 22.5991 579.156 63.8961 579.156H515.92C557.227 579.156 578.149 558.841 578.149 516.927V66.8041C578.149 24.2031 557.227 1.76815 514.628 1.76815C514.624 1.76815 66.1331 1.62515 66.2751 1.76815Z" fill="#111111" stroke="#EEEEEE" stroke-width="3.408"/>
<path d="M290 31.8125C147.543 31.8125 31.8125 147.543 31.8125 290C31.8125 338.246 45.0925 383.436 68.1875 422.094L87.75 406.312C68.0509 372.094 56.7812 332.376 56.7812 290C56.7812 161.054 161.054 56.7812 290 56.7812C332.893 56.7812 381.468 73.7477 415.971 93.8936L432.904 75.2137C393.022 49.9737 340.629 31.8125 290 31.8125ZM501.984 139.558L483.657 154.282C516.217 198.952 523.219 230.321 523.219 290C523.219 418.946 418.946 523.219 290 523.219C227.693 523.219 171.151 498.863 129.344 459.156L111.441 475.259C157.984 520.603 219.984 548.188 290 548.188C432.457 548.188 548.188 432.457 548.188 290C548.188 224.368 539.341 188.976 501.984 139.558Z" fill="white"/>
<path d="M290 105.562C188.29 105.562 105.562 188.29 105.562 290C105.562 342.516 127.633 389.947 162.969 423.562L190.168 415.7C153.27 381.344 130.562 333.088 130.562 290C130.562 201.801 201.801 130.562 290 130.562C298.095 130.562 306.044 131.186 313.812 132.344L319.75 107.969C310.065 106.39 300.126 105.562 290 105.562ZM468.259 236.729L445.697 247.729C449.187 265.297 449.438 272.119 449.438 290C449.438 378.199 378.199 449.438 290 449.438C269.293 449.438 235.743 441.598 217.608 434.449L207.992 455.611C229.725 464.633 265.038 474.438 290 474.438C391.71 474.438 474.438 391.71 474.438 290C474.438 268.223 474.071 258.053 468.259 236.729V236.729Z" fill="white"/>
<path d="M290 177.188C227.838 177.188 177.188 227.838 177.188 290C177.188 341.647 212.144 385.35 259.625 398.656L260.562 372.781C226.482 360.729 202.188 328.312 202.188 290C202.188 241.349 241.349 202.188 290 202.188C300.889 202.188 311.301 204.158 320.906 207.75L337.5 187.688C323.051 180.943 306.955 177.188 290 177.188ZM383.969 225.219L362.75 240.656C372.276 254.705 377.812 271.676 377.812 290C377.812 332.812 347.494 368.26 307.062 376.156L306.125 401.656C360.691 393.802 402.812 346.691 402.812 290C402.812 263.99 398.839 244.335 383.969 225.219Z" fill="white"/>
<path d="M290 246.625C266.188 246.625 246.625 266.188 246.625 290C246.625 296.589 248.141 302.855 250.812 308.469L271.656 290.625C271.649 290.416 271.625 290.211 271.625 290C271.625 279.699 279.699 271.625 290 271.625C296.646 271.625 302.338 275.002 305.563 280.156L332.969 284.219C330.103 263.107 311.849 246.625 290 246.625ZM301.806 303.842C299.23 305.833 297.936 306.704 294.202 307.663C289.131 308.964 284.779 307.272 283.901 307.148L267.192 323.725C274.027 328.234 281.266 333.375 290 333.375C307.404 333.375 322.55 322.924 329.438 308L301.806 303.842Z" fill="white"/>
<path d="M326.025 274.004L502.863 155.099" stroke="white" stroke-width="25"/>
<path d="M326.362 211.501L420.813 69.7964" stroke="white" stroke-width="25"/>
<path d="M122.951 481.225L183.804 409.651" stroke="white" stroke-width="25"/>
<path d="M220.075 459.214L278.673 328.586" stroke="white" stroke-width="25"/>
</g>
<defs>
<clipPath id="clip0">
<path d="M0 0H580V580H0V0Z" fill="white"/>
</clipPath>
</defs>
</svg>
